resources/icons/wallets/ledger.svg

<svg viewBox="0 0 214 214" fill="none" xmlns="http://www.w3.org/2000/svg">
<rect width="214" height="214" rx="8" fill="#3C4249"/>
<path d="M166.712 131.474V134.999H191V119.099H187.461V131.474H166.712ZM166.712 79V82.5256H187.461V94.901H191V79H166.712ZM154.187 106.274V98.0819H159.739C162.446 98.0819 163.417 98.9804 163.417 101.435V102.887C163.417 105.41 162.48 106.274 159.739 106.274H154.187ZM163 107.726C165.532 107.069 167.302 104.718 167.302 101.919C167.302 100.156 166.608 98.5655 165.29 97.2863C163.624 95.6958 161.403 94.901 158.524 94.901H150.717V119.098H154.187V109.454H159.392C162.063 109.454 163.139 110.56 163.139 113.326V119.099H166.678V113.879C166.678 110.077 165.776 108.625 163 108.21V107.726ZM133.786 108.521H144.473V105.341H133.786V98.0811H145.513V94.901H130.247V119.098H146.034V115.918H133.786V108.521ZM122.162 109.8V111.459C122.162 114.95 120.878 116.091 117.652 116.091H116.888C113.661 116.091 112.1 115.054 112.1 110.249V103.75C112.1 98.911 113.731 97.9079 116.957 97.9079H117.651C120.809 97.9079 121.815 99.0833 121.849 102.333H125.666C125.319 97.5624 122.127 94.5555 117.339 94.5555C115.014 94.5555 113.071 95.2817 111.614 96.6638C109.428 98.7036 108.214 102.161 108.214 107C108.214 111.666 109.255 115.123 111.406 117.266C112.863 118.683 114.875 119.444 116.853 119.444C118.935 119.444 120.844 118.614 121.815 116.817H122.3V119.098H125.492V106.62H116.089V109.8H122.162ZM91.5604 98.0811H95.3427C98.9168 98.0811 100.86 98.9796 100.86 103.82V110.18C100.86 115.019 98.9168 115.918 95.3427 115.918H91.5604V98.0811ZM95.6545 119.099C102.282 119.099 104.745 114.087 104.745 107C104.745 99.8104 102.108 94.9019 95.5847 94.9019H88.09V119.099H95.6545ZM71.3326 108.521H82.0193V105.341H71.3326V98.0811H83.0597V94.901H67.7927V119.098H83.5805V115.918H71.3326V108.521ZM50.8616 94.901H47.3228V119.098H63.2833V115.918H50.8616V94.901ZM23 119.099V135H47.2875V131.474H26.5387V119.099H23ZM23 79V94.901H26.5387V82.5256H47.2875V79H23Z" fill="white"/>
</svg>

<svg viewBox="0 0 214 214" fill="none" xmlns="http://www.w3.org/2000/svg"><rect width="214" height="214" rx="8" fill="#3C4249"/><path d="M166.712 131.474v3.525H191v-15.9h-3.539v12.375h-20.749Zm0-52.474v3.526h20.749V94.9H191V79h-24.288Zm-12.525 27.274v-8.192h5.552c2.707 0 3.678.898 3.678 3.353v1.452c0 2.523-.937 3.387-3.678 3.387h-5.552Zm8.813 1.452c2.532-.657 4.302-3.008 4.302-5.807 0-1.763-.694-3.353-2.012-4.633-1.666-1.59-3.887-2.385-6.766-2.385h-7.807v24.197h3.47v-9.644h5.205c2.671 0 3.747 1.106 3.747 3.872v5.773h3.539v-5.22c0-3.802-.902-5.254-3.678-5.669v-.484Zm-29.214.795h10.687v-3.18h-10.687v-7.26h11.727v-3.18h-15.266v24.197h15.787v-3.18h-12.248v-7.397Zm-11.624 1.279v1.659c0 3.491-1.284 4.632-4.51 4.632h-.764c-3.227 0-4.788-1.037-4.788-5.842v-6.499c0-4.839 1.631-5.842 4.857-5.842h.694c3.158 0 4.164 1.175 4.198 4.425h3.817c-.347-4.77-3.539-7.778-8.327-7.778-2.325 0-4.268.727-5.725 2.109-2.186 2.04-3.4 5.497-3.4 10.336 0 4.666 1.041 8.123 3.192 10.266 1.457 1.417 3.469 2.178 5.447 2.178 2.082 0 3.991-.83 4.962-2.627h.485v2.281h3.192V106.62h-9.403v3.18h6.073ZM91.56 98.081h3.783c3.574 0 5.517.899 5.517 5.739v6.36c0 4.839-1.943 5.738-5.517 5.738H91.56V98.081Zm4.094 21.018c6.628 0 9.091-5.012 9.091-12.099 0-7.19-2.637-12.098-9.16-12.098H88.09v24.197h7.564Zm-24.321-10.578h10.686v-3.18H71.333v-7.26H83.06v-3.18H67.793v24.197H83.58v-3.18H71.334v-7.397Zm-20.471-13.62h-3.54v24.197h15.961v-3.18H50.862V94.901ZM23 119.099V135h24.288v-3.526h-20.75v-12.375H23ZM23 79v15.901h3.539V82.526h20.748V79H23Z" fill="#fff"/></svg>
